!!!COA:	Josquin des Prez
!!!CDT:	~1450-1521/08/27
!!!COM2: La Rue, Pierre de
!!!CDT2: ~1452///-1518/11/20/
!!!OPR:	Missa Cum iocunditate
!!!ONM:	4
!!!OTL:	Sanctus
!!!AGN:	Mass; Sanctus
!!!SCT:	NJE 3.4
!!!SCA:	New Josquin Edition 3.4
!!!voices: 4
!!!voices-OPR: 4(-5)
**kern	**kern	**kern	**kern
*staff4	*staff3	*staff2	*staff1
*Ivox	*Ivox	*Ivox	*Ivox
*I"Bassus	*I"Tenor	*I"Altus	*I"Superius
*I'B	*I'T	*I'A	*I'S
*>[A,B,C,D]	*>[A,B,C,D]	*>[A,B,C,D]	*>[A,B,C,D]
*>Sanctus[A]	*>Sanctus[A]	*>Sanctus[A]	*>Sanctus[A]
*>Pleni[B]	*>Pleni[B]	*>Pleni[B]	*>Pleni[B]
*>Osanna[C]	*>Osanna[C]	*>Osanna[C]	*>Osanna[C]
*>Benedictus[D]	*>Benedictus[D]	*>Benedictus[D]	*>Benedictus[D]
*clefF4	*clefGv2	*clefGv2	*clefG2
*k[]	*k[]	*k[]	*k[]
*>A	*>A	*>A	*>A
*M3/1	*M3/1	*M3/1	*M3/1
*met(O)	*met(O)	*met(O)	*met(O)
=1-	=1-	=1-	=1-
!!section: Sanctus
!!!OMD: Sanctus
0.r	0.r	1.G	0g
.	.	2E/	.
.	.	2G/	1e
.	.	[2A/	.
=2	=2	=2	=2
1G	0.d	4A/]	1g
.	.	4G/	.
.	.	1G	.
0D	.	.	1.a
.	.	4F#i/	.
.	.	4E/	.
.	.	2.F#i/	.
.	.	.	2g/
.	.	4G/	.
=3	=3	=3	=3
2r	0B	1G	1g
1G	.	.	.
.	.	1r	2r
4F\	.	.	2g/
4E\	.	.	.
2D\	1d	1r	2a/
2G\	.	.	2b\
=4	=4	=4	=4
0C	0e	1G	2.cc\
.	.	.	4b\
.	.	1c	0g
2r	1d	2B\	.
[2G\	.	[2B\	.
=5	=5	=5	=5
2G\]	0d	2B\]	2r
4F\	.	4A/	2g/
4E\	.	4G/	.
2D\	.	2F/	2a/
2G\	.	1G	2b\
2C/	1r	.	2.cc\
2F\	.	2A/	.
.	.	.	4b\
=6	=6	=6	=6
2E\	0.r	2B\	2g/
2.A\	.	2c\	2.cc\
.	.	2.F/	.
4G\	.	.	4b\
4F\	.	.	4a/
4E\	.	4G/	4g/
1D	.	2A/	1f
.	.	[2A/	.
=7	=7	=7	=7
1C	0.c	4A/]	2e/
.	.	4G/	.
.	.	2E/	2a/
2r	.	2r	2g/
2F\	.	2A/	2.cc\
2E\	.	2G/	.
.	.	.	4b\
[2A\	.	[2c\	4a/
.	.	.	4g/
=8	=8	=8	=8
4A\]	0A	4c\]	4f/
4G\	.	4B\	4e/
4F\	.	4A/	1a
4E\	.	4G/	.
1D	.	2.F/	.
.	.	.	4g/
.	.	4E/	4f/
1C	1c	[1G	1e
=9	=9	=9	=9
2r	0d	1G]	2r
2G\	.	.	2g/
2F\	.	2r	2a/
2G\	.	1G	2b\
2C/	1c	.	2.cc\
2F\	.	2A/	.
.	.	.	4b\
=10	=10	=10	=10
2E\	0c	2B\	2g/
2.A\	.	2c\	2.cc\
.	.	1F	.
4G\	.	.	4b\
4F\	.	.	4a/
4E\	.	.	4g/
1D	1r	2r	2.a/
.	.	[2A/	.
.	.	.	8g/L
.	.	.	8f/J
=11	=11	=11	=11
0C	0.r	4A/]	2e/
.	.	4B\	.
.	.	2.c\	1a
.	.	4B\	.
.	.	4A/	1g
.	.	4G/	.
1r	.	1A	.
.	.	.	2f#i/
=12	=12	=12	=12
1.G	0.B	1G	0.g
.	.	2r	.
2G\	.	1d	.
2.G\	.	.	.
.	.	2d\	.
4F\	.	.	.
=13	=13	=13	=13
4E\	0G	4c\	1r
4D\	.	4B\	.
1E	.	1c	.
.	.	.	1r
4D\	.	4B\	.
4C/	.	4A/	.
1BB	1B	1G	2.d/
.	.	.	4e/
=14	=14	=14	=14
0AA	0c	2.A/	4f/
.	.	.	4g/
.	.	.	2.a/
.	.	4B\	.
.	.	4c\	.
.	.	4d\	4b\
.	.	2e\	4cc\
.	.	.	8b\L
.	.	.	8cc\J
1r	1B	2d\	1dd
.	.	2G/	.
=15	=15	=15	=15
1.G	0B	1d	2dd\
.	.	.	2g/
.	.	2r	2.dd\
2G\	.	2.d\	.
.	.	.	4cc\
2.G\	1r	.	4b\
.	.	4c\	4a/
.	.	4B\	[2b\
4F\	.	4A/	.
=16	=16	=16	=16
4E\	0.r	0G	2b\]
4D\	.	.	.
1E	.	.	1g
4D\	.	.	4f/
4C/	.	.	4e/
1BB	.	1G	2.d/
.	.	.	4e/
=17	=17	=17	=17
0.AA	0.A	4A/	4f/
.	.	4B\	4g/
.	.	4c\	1a
.	.	4d\	.
.	.	2e\	.
.	.	1d	4g/
.	.	.	4f/
.	.	.	1e
.	.	2c#i\	.
=18	=18	=18	=18
2r	0F	2d\	0d
1D	.	1B-i	.
4C/	.	4A/	.
4BB-i/	.	4G/	.
1AA	1A	2.F#i/	1r
.	.	4E/	.
=19	=19	=19	=19
2r	0B-i	4G/	1r
.	.	4A/	.
4GG/	.	4B-i\	.
4AA/	.	4c\	.
4BB-i/	.	4d\	2r
4C/	.	4e\	.
1D	.	1f	4d/
.	.	.	4e/
.	1A	.	4f/
.	.	.	4g/
4C/	.	4e\	[2a/
4BB-i/	.	4d\	.
=20	=20	=20	=20
0AA	0A	2c\	2a/]
.	.	1d	4g/
.	.	.	4f/
.	.	.	1e
.	.	2c#i\	.
2r	1r	[1d	2d/
4GG/	.	.	4B/
4AA/	.	.	4c/
=21	=21	=21	=21
4BB/	0.r	1d]	4d/
4C/	.	.	4e/
1D	.	.	1f
.	.	1r	.
4C/	.	.	4e/
4BB/	.	.	4d/
1AA	.	2r	1c
.	.	4c\	.
.	.	4d\	.
=22	=22	=22	=22
0.GG	0.G	4e\	2B/
.	.	4f\	.
.	.	1g	2e/
.	.	.	2d/
.	.	4f\	1c
.	.	4e\	.
.	.	1d	.
.	.	.	2B/
=23	=23	=23	=23
0C	0E	2r	1c
.	.	4c\	.
.	.	4d\	.
.	.	4e\	2r
.	.	4f\	.
.	.	1g	4g/
.	.	.	4a/
1GG	1G	.	4b\
.	.	.	4cc\
.	.	4f\	[2dd\
.	.	4e\	.
=24	=24	=24	=24
0D	0A	2d\	2dd\]
.	.	1g	4cc\
.	.	.	4b\
.	.	.	1a
.	.	2f#i\	.
1GG	1G	[1g	[1b
=25	=25	=25	=25
0.GGl	0.Gl	2g\]	2b\]
.	.	2d\	2g/
.	.	1d	1g
.	.	1dl	1gl
!!LO:LB:i:g=z
=26||	=26||	=26||	=26||
*>B	*>B	*>B	*>B
!!section: Pleni sunt celi
!!!OMD: Pleni sunt celi
*M2/1	*M2/1	*M2/1	*M2/1
*met(C|)	*met(C|)	*met(C|)	*met(C|)
0r	0r	1G	0r
.	.	2G/	.
.	.	[2B\	.
=27	=27	=27	=27
1r	0r	4B\]	0r
.	.	4c\	.
.	.	2d\	.
2r	.	2B\	.
[2C/	.	[2e\	.
=28	=28	=28	=28
2C/]	0r	2e\]	0r
2.E\	.	4d\	.
.	.	4c\	.
.	.	1B	.
4F\	.	.	.
2G\	.	.	.
=29	=29	=29	=29
2E\	0r	0r	1r
1A	.	.	.
.	.	.	1e
4G\	.	.	.
4F\	.	.	.
=30	=30	=30	=30
[0E	0r	1r	2e/
.	.	.	2.g/
.	.	2r	.
.	.	.	4a/
.	.	[2e\	2b\
=31	=31	=31	=31
0E_	0r	4e\]	2g/
.	.	4d\	.
.	.	2B\	1cc
.	.	2c\	.
.	.	[2B\	2g/
=32	=32	=32	=32
0E]	0r	2B\]	1g
.	.	2e\	.
.	.	2e\	1r
.	.	[2g\	.
=33	=33	=33	=33
2r	0r	4g\]	2r
.	.	4f\	.
2G\	.	2e\	2b\
2G\	.	1d	2b\
[2B\	.	.	[2dd\
=34	=34	=34	=34
4B\]	0r	2r	4dd\]
4A\	.	.	4cc\
2G\	.	2d\	2b\
1F	.	2d\	1a
.	.	[2f\	.
=35	=35	=35	=35
2D\	0r	4f\]	2r
.	.	4e\	.
2F\	.	2d\	2a/
2F\	.	1c	2a/
[2A\	.	.	[2cc\
=36	=36	=36	=36
4A\]	0r	1r	4cc\]
4G\	.	.	4b\
2F\	.	.	2a/
2E\	.	2r	2g/
2A\	.	2c\	2f/
=37	=37	=37	=37
2A\	0r	2c\	1e
2.c\	.	2.e\	.
.	.	.	2r
4B\	.	4d\	.
2A\	.	2c\	2e/
=38	=38	=38	=38
0G	0r	[0B	2e/
.	.	.	2.g/
.	.	.	4f/
.	.	.	2e/
=39	=39	=39	=39
2r	0r	0B]	2d/
2E\	.	.	2.g/
2E\	.	.	.
.	.	.	4a/
[2G\	.	.	4b\
.	.	.	4cc\
=40	=40	=40	=40
4G\]	0r	2r	2dd\
4F\	.	.	.
2E\	.	2B\	2g/
1D	.	2B\	2b\
.	.	[2d\	[2a/
=41	=41	=41	=41
0D	0r	4d\]	2a/]
.	.	4c\	.
.	.	2B\	1g
.	.	1A	.
.	.	.	2f#i/
=42	=42	=42	=42
0GG	0r	2r	1g
.	.	2G/	.
.	.	2D/	2r
.	.	[2G/	2g/
=43	=43	=43	=43
1r	0r	4G/]	2d/
.	.	4F/	.
.	.	4G/	2.g/
.	.	4A/	.
2r	.	2B\	.
.	.	.	4f/
2G\	.	[2G/	4g/
.	.	.	4a/
=44	=44	=44	=44
2E\	0r	2G/]	2b\
2.G\	.	2.B\	2g/
.	.	.	2r
4F\	.	4A/	.
4G\	.	4B\	[2g/
4A\	.	4c\	.
=45	=45	=45	=45
2B\	0r	2d\	4g/]
.	.	.	4f/
2G\	.	1B	4g/
.	.	.	4a/
2r	.	.	2b\
2G\	.	2B\	2g/
=46	=46	=46	=46
2E\	0r	2G/	4b\
.	.	.	4a/
2.G\	.	2.B\	4b\
.	.	.	4cc\
.	.	.	[1dd
4F\	.	4A/	.
4G\	.	4B\	.
4A\	.	4c\	.
=47	=47	=47	=47
1B	0r	2d\	1dd]
.	.	2G/	.
1G	.	4d\	1b
.	.	4c\	.
.	.	4d\	.
.	.	4e\	.
=48	=48	=48	=48
[0F	0r	2f\	[0a
.	.	4e\	.
.	.	4d\	.
.	.	1c	.
=49	=49	=49	=49
1F]	0r	2r	0a]
.	.	2.d\	.
2r	.	.	.
.	.	4c\	.
[2D\	.	4d\	.
.	.	4e\	.
=50	=50	=50	=50
4D\]	0r	2f\	2r
4C/	.	.	.
4D\	.	4e\	2.a/
4E\	.	4d\	.
2F\	.	[1c	.
.	.	.	4g/
4E\	.	.	4a/
4D\	.	.	4b\
=51	=51	=51	=51
0C	0r	1c]	2cc\
.	.	.	4b\
.	.	.	4a/
.	.	1c	1g
=52	=52	=52	=52
2r	0r	0c	2r
2.F\	.	.	2.a/
4E\	.	.	4g/
4F\	.	.	4a/
4G\	.	.	4b\
=53	=53	=53	=53
1.A	0r	2r	2cc\
.	.	2.c\	1cc
.	.	4B\	.
4G\	.	4c\	4b\
4F\	.	4d\	4a/
=54	=54	=54	=54
1E	0r	2e\	2g/
.	.	4d\	1a
.	.	4c\	.
1E	.	1B	.
.	.	.	2g#i/
=55	=55	=55	=55
1r	0r	2A/	2a/
.	.	4d\	4f/
.	.	4c\	4e/
2r	.	4d\	4f/
.	.	4e\	4g/
[2F\	.	[2f\	[2a/
=56	=56	=56	=56
4F\]	0r	4f\]	2a/]
4E\	.	4e\	.
4F\	.	1d	4g/
4G\	.	.	4f/
1A	.	.	1e
.	.	2c#i\	.
=57	=57	=57	=57
0D	0r	2d\	2d/
.	.	2.f\	2.a/
.	.	4e\	4g/
.	.	4f\	4a/
.	.	4g\	4b\
=58	=58	=58	=58
0r	0r	2a\	2cc\
.	.	2f\	1dd
.	.	1e	.
.	.	.	2cc#i\
=59	=59	=59	=59
2r	0r	1d	1dd
2.D\	.	.	.
.	.	2r	1r
4E\	.	.	.
4F\	.	[2A/	.
4G\	.	.	.
=60	=60	=60	=60
2A\	0r	4A/]	2r
.	.	4B\	.
2.AA/	.	4c\	2.c/
.	.	4d\	.
.	.	2e\	.
4BB/	.	.	4d/
4C/	.	[2E/	4e/
4D\	.	.	4f/
=61	=61	=61	=61
0E	0r	4E/]	0g
.	.	4F/	.
.	.	4G/	.
.	.	4A/	.
.	.	2B\	.
.	.	2c\	.
=62	=62	=62	=62
2r	0r	1d	2r
2.D\	.	.	2.f/
.	.	2r	.
4E\	.	.	4g/
4F\	.	[2A/	4a/
4G\	.	.	4b\
=63	=63	=63	=63
2A\	0r	4A/]	1.cc
.	.	4B\	.
2.AA/	.	4c\	.
.	.	4d\	.
.	.	2e\	.
4BB/	.	.	.
4C/	.	[2E/	4b\
4D\	.	.	4a/
=64	=64	=64	=64
0E	0r	4E/]	1g
.	.	4F/	.
.	.	4G/	.
.	.	4A/	.
.	.	1B	2r
.	.	.	[2g/
=65	=65	=65	=65
0r	0r	2r	4g/]
.	.	.	4a/
.	.	2.G/	4b\
.	.	.	4cc\
.	.	.	2dd\
.	.	4A/	.
.	.	4B\	[2d/
.	.	4c\	.
=66	=66	=66	=66
1r	0r	1d	4d/]
.	.	.	4e/
.	.	.	4f/
.	.	.	4g/
2r	.	2c\	2a/
[2GG/	.	[2d\	[2b\
=67	=67	=67	=67
4GG/]	0r	2d\]	2b\]
4AA/	.	.	.
4BB/	.	4c\	1g
4C/	.	4B\	.
1D	.	1A	.
.	.	.	2f#i/
=68	=68	=68	=68
[0GG	0r	0G	1g
.	.	.	2r
.	.	.	[2g/
=69	=69	=69	=69
0GG]	0r	1r	4g/]
.	.	.	4a/
.	.	.	4b\
.	.	.	4cc\
.	.	2.G/	2dd\
.	.	.	[2d/
.	.	4A/	.
=70	=70	=70	=70
1r	0r	4B\	4d/]
.	.	4c\	4e/
.	.	2d\	4f/
.	.	.	4g/
2r	.	2c\	2a/
[2GG/	.	[2d\	[2b\
=71	=71	=71	=71
4GG/]	0r	2d\]	2b\]
4AA/	.	.	.
4BB/	.	4c\	1g
4C/	.	4B\	.
1D	.	1A	.
.	.	.	2f#i/
=72	=72	=72	=72
0GGl	0r	0Gl	0gl
!!LO:LB:i:g=z
=73||	=73||	=73||	=73||
*>C	*>C	*>C	*>C
!!section: Osanna
!!!OMD: Osanna
*M3/1	*M3/1	*M3/1	*M3/1
*met(C|3)	*met(C|3)	*met(C|3)	*met(C|3)
0.r	0.G	1d	1.g
.	.	1B	.
.	.	.	2a/
.	.	1d	1b
=74	=74	=74	=74
1.C	1G	0e	0cc
.	1E	.	.
2D\	.	.	.
1E	1G	1e	1b
=75	=75	=75	=75
0F	0A	1.c	1.a
.	.	2d\	2b\
1E	1G	1e	1cc
=76	=76	=76	=76
1.D	0.r	1.f	1.dd
2E\	.	2e\	2cc\
1F	.	2d\	2b\
.	.	2c\	2a/
=77	=77	=77	=77
1.G	0G	1.B	0g
2F\	.	2c\	.
2E\	1G	1d	1r
2D\	.	.	.
=78	=78	=78	=78
0C	0E	0e	0cc
1r	1G	1d	1b
=79	=79	=79	=79
0F	0A	1.c	1.a
.	.	2A/	2f/
1E	1G	2B\	1g
.	.	2c\	.
=80	=80	=80	=80
1.D	0.r	0d	1.f
2BB/	.	.	2d/
1C	.	1r	1e
=81	=81	=81	=81
1.BB	0G	0.r	0d
2GG/	.	.	.
1AA	1E	.	1r
=82	=82	=82	=82
0GG	0G	0B	1.d
.	.	.	2e/
1r	1A	1c	1f
=83	=83	=83	=83
1.GG	0G	1.d	1.g
2AA/	.	2c\	2f/
1BB	1r	2B\	1d
.	.	2A/	.
=84	=84	=84	=84
1.C	0G	1G	1.e
.	.	1c	.
2BB/	.	.	2f/
1GG	1G	1B	1g
=85	=85	=85	=85
0AA	[0.E	1.e	1.c
.	.	2d\	2d/
1r	.	1c	2e/
.	.	.	2c/
=86	=86	=86	=86
1.GG	1E]	0B	0g
.	0G	.	.
2AA/	.	.	.
2BB/	.	[1d	1r
2GG/	.	.	.
=87	=87	=87	=87
0D	[0.A	0.d]	1.f
.	.	.	2g/
1r	.	.	2a/
.	.	.	2f/
=88	=88	=88	=88
1.C	1A]	0e	0cc
.	0G	.	.
2D\	.	.	.
2E\	.	1e	1cc
2C/	.	.	.
=89	=89	=89	=89
1G	0.r	1.d	1b
1F	.	.	1.a
.	.	2c\	.
[1G	.	1B	.
.	.	.	2g/
=90	=90	=90	=90
1G]	0d	1G	0g
0D	.	0A	.
.	1d	.	1f#i
=91	=91	=91	=91
0GG	0B	0G	0g
1r	1d	1r	1r
=92	=92	=92	=92
0C	[0.e	0G	0g
1AA	.	1c	1a
=93	=93	=93	=93
1E	1e]	1B	1g
1F	0d	1A	1a
1G	.	1G	1b
=94	=94	=94	=94
1C	0.r	0e	1cc
1E	.	.	1g
1F	.	1d	1a
=95	=95	=95	=95
1E	0.r	1e	1g
1F	.	0d	1a
1G	.	.	1b
=96	=96	=96	=96
0C	0G	0c	1.cc
.	.	.	2b\
1C	1E	1r	1g
=97	=97	=97	=97
1GG	1G	0g	1.dd
0D	0A	.	.
.	.	.	2cc\
.	.	1f	1a
=98	=98	=98	=98
1GG	1G	1g	1b
1AA	1E	1c	2b\
.	.	.	1a
1BB	[1G	1B	.
.	.	.	2g/
=99	=99	=99	=99
1GG	1G]	1.d	0g
0D	0A	.	.
.	.	2c\	.
.	.	1A	1f#i
=100	=100	=100	=100
[0.GGl	[0.Gl	[0.B	[0.gl
=101	=101	=101	=101
0.GG]	0.G]	1B]	0.g]
.	.	0dl	.
!!LO:LB:i:g=z
!LO:TX:rj:i:t=fine	!	!	!
=102||	=102||	=102||	=102||
*>D	*>D	*>D	*>D
!!section: Benedictus
!!!OMD: Benedictus
*M2/1	*M2/1	*M2/1	*M2/1
*met(C|)	*met(C|)	*met(C|)	*met(C|)
0r	0r	1G	0r
.	.	2G/	.
.	.	[2c\	.
=103	=103	=103	=103
0r	0r	2c\]	0r
.	.	1B	.
.	.	4A/	.
.	.	4G/	.
=104	=104	=104	=104
0r	0r	2A/	1e
.	.	1G	.
.	.	.	2e/
.	.	2c\	[2a/
=105	=105	=105	=105
0r	0r	2d\	2a/]
.	.	1e	1g
.	.	4d\	4f/
.	.	4c\	4e/
=106	=106	=106	=106
0r	0r	2d\	2f/
.	.	2c\	2.e/
.	.	[1e	.
.	.	.	4f/
.	.	.	4g/
.	.	.	4a/
=107	=107	=107	=107
0r	0r	1e]	2b\
.	.	.	1cc
.	.	1A	.
.	.	.	4b\
.	.	.	4a/
=108	=108	=108	=108
1D	0r	2r	2b\
.	.	2.f\	2a/
2D\	.	.	2.dd\
.	.	4d\	.
[2G\	.	2d\	.
.	.	.	4cc\
=109	=109	=109	=109
2G\]	0r	2e\	2b\
1F	.	2.A/	1a
.	.	4B\	.
4E\	.	4c\	4g/
4D\	.	4d\	4f/
=110	=110	=110	=110
2E\	0r	2B\	2g/
2D\	.	2d\	2a/
1A	.	1c	1e
=111	=111	=111	=111
2r	0r	2r	2r
1A	.	2.c\	1cc
.	.	4d\	.
4G\	.	4e\	2cc\
4F\	.	4f\	.
=112	=112	=112	=112
2G\	0r	2d\	2b\
2F\	.	2f\	2a/
1c	.	[1e	[1g
=113	=113	=113	=113
1C	0r	1e]	1g]
2r	.	2r	2r
[2E\	.	[2G/	[2g/
=114	=114	=114	=114
2E\]	0r	4G/]	2g/]
.	.	4A/	.
4D\	.	4B\	4f/
4C/	.	4c\	4e/
2D\	.	2A/	2f/
2C/	.	2c\	2g/
=115	=115	=115	=115
1G	0r	0B	0d
1GG	.	.	.
=116	=116	=116	=116
2r	0r	2r	2r
1G	.	1d	1b
4F\	.	2d\	4a/
4E\	.	.	4g/
=117	=117	=117	=117
2F\	0r	2c\	2a/
2G\	.	2B\	1g
1D	.	1A	.
.	.	.	2f#i/
=118	=118	=118	=118
1GG	0r	1G	0g
2r	.	2r	.
[2G\	.	[2B-i\	.
=119	=119	=119	=119
4G\]	0r	4B-\]	0r
4F\	.	4A/	.
4E\	.	4G/	.
4D\	.	4F/	.
2E\	.	2G/	.
2F\	.	2A/	.
=120	=120	=120	=120
2D\	0r	1F	2r
2.A\	.	.	2.cc\
.	.	1c	.
4G\	.	.	4b\
4F\	.	.	4a/
4E\	.	.	4g/
=121	=121	=121	=121
2F\	0r	1r	2a/
2.G\	.	.	2b\
.	.	2r	2g/
4F\	.	.	.
2D\	.	[2f\	[2dd\
=122	=122	=122	=122
0r	0r	4f\]	4dd\]
.	.	4e\	4cc\
.	.	4d\	4b\
.	.	4c\	4a/
.	.	2d\	2b\
.	.	2e\	2cc\
=123	=123	=123	=123
2r	0r	2c\	2a/
2.B-\	.	2.g\	2g/
.	.	.	1r
4A\	.	4f\	.
4G\	.	4e\	.
4F\	.	4d\	.
=124	=124	=124	=124
2G\	0r	2e\	0r
2A\	.	2f\	.
2F\	.	2d\	.
[2G\	.	[2e\	.
=125	=125	=125	=125
4G\]	0r	4e\]	0r
4F\	.	4d\	.
4E\	.	4c\	.
4D\	.	4B\	.
2E\	.	2c\	.
2F\	.	[2d\	.
=126	=126	=126	=126
2D\	0r	2d\]	2r
2.E\	.	2G/	2.g/
.	.	1r	.
4D\	.	.	4f/
4C/	.	.	4e/
4BB/	.	.	4d/
=127	=127	=127	=127
1C	0r	1r	2.e/
.	.	.	4f/
1D	.	2r	2d/
.	.	[2d\	[2b-i\
=128	=128	=128	=128
0r	0r	4d\]	4b-\]
.	.	4c\	4a/
.	.	4B\	4g/
.	.	4A/	4f/
.	.	1B	1g
=129	=129	=129	=129
2r	0r	[0A	0a
1D	.	.	.
2D\	.	.	.
=130	=130	=130	=130
2C/	0r	0A]	2r
2.AA/	.	.	1a
4BB/	.	.	.
4C/	.	.	2a/
4D\	.	.	.
=131	=131	=131	=131
1E	0r	2r	2g/
.	.	1c	2.e/
1r	.	.	.
.	.	.	4f/
.	.	2c\	4g/
.	.	.	4a/
=132	=132	=132	=132
2r	0r	2B\	0b
1G	.	2.G/	.
.	.	4A/	.
2G\	.	4B\	.
.	.	4c\	.
=133	=133	=133	=133
2F\	0r	2d\	0r
2.D\	.	1d	.
4E\	.	.	.
4F\	.	2d\	.
4G\	.	.	.
=134	=134	=134	=134
1A	0r	2c\	2r
.	.	2.A/	1cc
1AA	.	.	.
.	.	4B\	.
.	.	4c\	2cc\
.	.	4d\	.
=135	=135	=135	=135
2r	0r	0e	2b\
1C	.	.	2.g/
.	.	.	4a/
2C/	.	.	4b\
.	.	.	4cc\
=136	=136	=136	=136
2BB/	0r	2r	0dd
2.GG/	.	1G	.
4AA/	.	.	.
4BB/	.	2G/	.
4C/	.	.	.
=137	=137	=137	=137
0D	0r	2F/	2r
.	.	2.D/	1d
.	.	4E/	.
.	.	4F/	2d/
.	.	4G/	.
=138	=138	=138	=138
2r	0r	0A	2c/
1D	.	.	2.A/
.	.	.	4B/
2D\	.	.	4c/
.	.	.	4d/
=139	=139	=139	=139
2C/	0r	2r	2e/
2.AA/	.	1c	2f/
.	.	.	2.e/
4BB/	.	.	.
4C/	.	2c\	.
4D\	.	.	4f/
=140	=140	=140	=140
0E	0r	2B\	4g/
.	.	.	4a/
.	.	2.G/	1b
.	.	4A/	.
.	.	4B\	4a/
.	.	4c\	4g/
=141	=141	=141	=141
2D\	0r	2d\	2f/
2E\	.	2G/	1g
1D	.	1A	.
.	.	.	2f#i/
=142	=142	=142	=142
2r	0r	1G	0g
1G	.	.	.
.	.	1r	.
2G\	.	.	.
=143	=143	=143	=143
2F\	0r	0r	2r
2.C/	.	.	1cc
4D\	.	.	.
4E\	.	.	2cc\
4F\	.	.	.
=144	=144	=144	=144
2G\	0r	2r	2b\
1C	.	1c	2.g/
.	.	.	4a/
4BB/	.	2c\	4b\
4AA/	.	.	4cc\
=145	=145	=145	=145
2GG/	0r	2B\	2dd\
1G	.	2.G/	1b
.	.	4A/	.
4F\	.	4B\	4a/
4E\	.	4c\	4g/
=146	=146	=146	=146
2D\	0r	2d\	2f/
2E\	.	2G/	1g
1D	.	1A	.
.	.	.	2f#i/
=147	=147	=147	=147
0GGl	0r	0Gl	0gl
!LO:TX:i:Y=40:rj:t=Osanna ut supra	!	!	!
=||	=||	=||	=||
*-	*-	*-	*-
!!!RDF**kern: %=rational rhythm
!!!rscale-alt: 1/4
!!!RDF**kern: l=long note in original notation
!!!RDF**kern: i=editorial accidental
!!!ENC: Jesse Rodin; Victoria Chang 2011/04/03
!!!END: 2011/04/03/
!!!EED:	Jesse Rodin
!!!EEV: 2012/04/24/
!!attribution-level@Jos: 6 (very doubtful)
!!!ONB:	Translated from MusicXML and edited on 2011/02/11/ by Craig Sapp
!!muse2ps: T^@{OPR}^u^@{ONM}{. }@{OTL}^C^La Rue/Josquin?\n@{SCT}^i2I100v85,90,85,150c140Q4
